X:420
T:Garthlands. RH.420
R:strathspey
S:Rev.R.Harrison’s MS,c1815,Cumbria
O:England
A:Temple Sowerby,Cumbria
Z:vmp.Simon Wilson. Review PJH, 2008.
M:C
L:1/8
Q:2/4=70
K:G
D|G2BG B<dg2|G2BA/G/ FAAB|\
G2BG B<dg2|c>A BA/G/ DGG:|!
d/c/|Bddg ag/f/g2|B>Gd>G FAA d/c/|\
Bddg ag/f/g2|cA de/d/ BGG d/c/|!
Bddg ag/f/ g>c|B<Gd>G FAA B/c/|\
d>cBA B>GFE|FD de/c/ BGG|]

